src/assets/filled/Bus.svg

<?xml version="1.0" encoding="UTF-8"?>
<svg width="24" height="24" viewBox="0 0 24 24" xmlns="http://www.w3.org/2000/svg">
 <path d="m4 13.5v5.4c0 1.7 1.39 3.1 3.1 3.1h9.8c1.7 0 3.1-1.39 3.1-3.1v-5.4c0-0.28-0.22-0.5-0.5-0.5h-15c-0.28 0-0.5 0.22-0.5 0.5zm4.88 4.88c-0.23 0.24-0.55 0.37-0.88 0.37-0.08 0-0.16-0.01-0.24-0.02-0.08-0.02-0.16-0.04-0.24-0.08-0.07-0.03-0.15-0.07-0.21-0.11-0.07-0.05-0.14-0.1-0.19-0.16-0.24-0.23-0.37-0.55-0.37-0.88s0.13-0.65 0.37-0.88c0.05-0.06 0.12-0.11 0.19-0.16 0.06-0.04 0.14-0.08 0.21-0.11 0.08-0.04 0.16-0.06 0.24-0.08 0.4-0.08 0.83 0.06 1.12 0.35 0.24 0.23 0.37 0.55 0.37 0.88s-0.13 0.65-0.37 0.88zm8 0c-0.05 0.06-0.12 0.11-0.19 0.16-0.06 0.04-0.14 0.08-0.21 0.11-0.08 0.04-0.16 0.06-0.23 0.08-0.09 0.01-0.17 0.02-0.25 0.02s-0.16-0.01-0.24-0.02c-0.08-0.02-0.16-0.04-0.24-0.08-0.07-0.03-0.15-0.07-0.21-0.11-0.07-0.05-0.14-0.1-0.19-0.16-0.24-0.23-0.37-0.55-0.37-0.88s0.13-0.65 0.37-0.88c0.05-0.06 0.12-0.11 0.19-0.16 0.06-0.04 0.14-0.08 0.21-0.11 0.08-0.04 0.16-0.06 0.24-0.08 0.16-0.03 0.32-0.03 0.49 0 0.07 0.02 0.15 0.04 0.23 0.08 0.07 0.03 0.15 0.07 0.21 0.11 0.07 0.05 0.14 0.1 0.19 0.16 0.24 0.23 0.37 0.55 0.37 0.88s-0.13 0.65-0.37 0.88z"/>
 <path d="m16.9 2h-9.8c-1.71 0-3.1 1.39-3.1 3.1v2.4c0 0.28 0.22 0.5 0.5 0.5h15c0.28 0 0.5-0.22 0.5-0.5v-2.4c0-1.71-1.39-3.1-3.1-3.1zm-2.4 3.75h-5c-0.41 0-0.75-0.34-0.75-0.75s0.34-0.75 0.75-0.75h5c0.41 0 0.75 0.34 0.75 0.75s-0.34 0.75-0.75 0.75z"/>
 <path d="m19.5 12h-15c-0.28 0-0.5-0.22-0.5-0.5v-2c0-0.28 0.22-0.5 0.5-0.5h15c0.28 0 0.5 0.22 0.5 0.5v2c0 0.28-0.22 0.5-0.5 0.5z"/>
</svg>

<svg width="24" height="24" viewBox="0 0 24 24"  xmlns="http://www.w3.org/2000/svg">
<path d="M4 13.5V18.9C4 20.6 5.39 22 7.1 22H16.9C18.6 22 20 20.61 20 18.9V13.5C20 13.22 19.78 13 19.5 13H4.5C4.22 13 4 13.22 4 13.5ZM8.88 18.38C8.65 18.62 8.33 18.75 8 18.75C7.92 18.75 7.84 18.74 7.76 18.73C7.68 18.71 7.6 18.69 7.52 18.65C7.45 18.62 7.37 18.58 7.31 18.54C7.24 18.49 7.17 18.44 7.12 18.38C6.88 18.15 6.75 17.83 6.75 17.5C6.75 17.17 6.88 16.85 7.12 16.62C7.17 16.56 7.24 16.51 7.31 16.46C7.37 16.42 7.45 16.38 7.52 16.35C7.6 16.31 7.68 16.29 7.76 16.27C8.16 16.19 8.59 16.33 8.88 16.62C9.12 16.85 9.25 17.17 9.25 17.5C9.25 17.83 9.12 18.15 8.88 18.38ZM16.88 18.38C16.83 18.44 16.76 18.49 16.69 18.54C16.63 18.58 16.55 18.62 16.48 18.65C16.4 18.69 16.32 18.71 16.25 18.73C16.16 18.74 16.08 18.75 16 18.75C15.92 18.75 15.84 18.74 15.76 18.73C15.68 18.71 15.6 18.69 15.52 18.65C15.45 18.62 15.37 18.58 15.31 18.54C15.24 18.49 15.17 18.44 15.12 18.38C14.88 18.15 14.75 17.83 14.75 17.5C14.75 17.17 14.88 16.85 15.12 16.62C15.17 16.56 15.24 16.51 15.31 16.46C15.37 16.42 15.45 16.38 15.52 16.35C15.6 16.31 15.68 16.29 15.76 16.27C15.92 16.24 16.08 16.24 16.25 16.27C16.32 16.29 16.4 16.31 16.48 16.35C16.55 16.38 16.63 16.42 16.69 16.46C16.76 16.51 16.83 16.56 16.88 16.62C17.12 16.85 17.25 17.17 17.25 17.5C17.25 17.83 17.12 18.15 16.88 18.38Z" />
<path d="M16.9 2H7.1C5.39 2 4 3.39 4 5.1V7.5C4 7.78 4.22 8 4.5 8H19.5C19.78 8 20 7.78 20 7.5V5.1C20 3.39 18.61 2 16.9 2ZM14.5 5.75H9.5C9.09 5.75 8.75 5.41 8.75 5C8.75 4.59 9.09 4.25 9.5 4.25H14.5C14.91 4.25 15.25 4.59 15.25 5C15.25 5.41 14.91 5.75 14.5 5.75Z" />
<path d="M19.5 12H4.5C4.22 12 4 11.78 4 11.5V9.5C4 9.22 4.22 9 4.5 9H19.5C19.78 9 20 9.22 20 9.5V11.5C20 11.78 19.78 12 19.5 12Z" />
</svg>
